X: 10262
T: Doctor O'Neill
R: jig
M: 6/8
K: Dmajor
A|:~d3 AFD|E2F G2 A|~B3 Bcd|AGF EFA|
~d3 AFD|E2 F G2 A|BGB Bcd|AFD D2 A:|
|:~d3 ceA|dfe dcB|AFA Bcd|AGF E2A|
~d3 ceA|dfe dcB|AFA Bcd|1 AFD D2 A:|2 AFD D2 g||
|:~f3 afd|ded fed|~g3 faf|gee e2 g|
~f3 afd|ded fed|gbg fag|fdd d2 g:|
|:fdf ece|dcB AFA|AFd AFD|AGF E2 g|
fdf ece|dcB AFA|~B3 Bcd|1 AFD D2 g:|2 AFD D2 G||
|:FAF GBG|FAG FED|FAF GBG|AGF E2G|
FAF GBG|FAG FED|~B3 Bcd|1 AFD D2 G:|2 AFD D3||

